!!!COM: Vivaldi, Antonio
!!!OTL: Concerto a violino solo, No. 8
!!!XEN: Violin Concerto No. 8 in G minor
!!!OPR: Il Cimento dell'armonia e dell'inventione
!!!XEN: The Contest of Harmony and Invention
!!!OPS: Opus 8
!!!ONM: No. 8
!!!OMV: Movement 2.
!!!YEC: Copyright 1996, Center for Computer Assisted Research in the Humanities
!!!YEM: Rights to all derivative electronic formats reserved.
!!!YEM: Refer to licensing agreement for important restrictions.
!!!ONB: In the Turin autograph, violino 1 duplicated violino 2 for the first
!!!ONB: seven measures (spine 4);  later this was changed to "Unisoni" so
!!!ONB: that violino 1 duplicates violino principale throughout (spine 5).
!!!OMD: Largo
**kern	**kern	**kern	**kern	**kern	**kern	**Bnum
*Icello	*Iviola	*Ivioln	*Ivioln	*Ivioln	*Ivioln	*Icemba
*Icemba	*	*	*	*	*	*
*ICstr	*ICstr	*ICstr	*ICstr	*ICstr	*ICstr	*ICklav
*ICklav	*	*	*	*	*	*
!cello 	!viola 	!violino 2	!violino 1	!violino 1	!violino principale	!continuo
!basso continuo	!	!	!	!	!	!
*clefF4	*clefC3	*clefG2	*clefG2	*clefG2	*clefG2	*
*k[b-e-]	*k[b-e-]	*k[b-e-]	*k[b-e-]	*k[b-e-]	*k[b-e-]	*k[b-e-]
*B-:	*B-:	*B-:	*B-:	*B-:	*B-:	*B-:
*M4/4	*M4/4	*M4/4	*M4/4	*M4/4	*M4/4	*M4/4
=1-	=1-	=1-	=1-	=1-	=1-	=1-
[2B-\	2f\	4b-\	4b-\	4dd\	4dd\	.
.	.	4dd\	4dd\	4ff\	4ff\	.
4B-\]	4g\	2cc\	2cc\	4ee-\	4ee-\	4 2
4A\	4a\	.	.	[4ff\	[4ff\	6
=2	=2	=2	=2	=2	=2	=2
2G\	4d\	2b-\	2b-\	4ff\]	4ff\]	7
.	4e-\	.	.	2ee-\	2ee-\	6
2F#\	4A/	4cc\	4cc\	.	.	7
.	4cc\	4ee-\	4ee-\	4aa\	4aa\	.
=3	=3	=3	=3	=3	=3	=3
4G\	8b-\L	4dd\	4dd\	4bb-\	4bb-\	.
.	8g\J	.	.	.	.	.
4C#/	4a\	4een\	4een\	8aa\L	8aa\L	6 5
.	.	.	.	8gg\J	8gg\J	.
4Cn/	4a\	2dd\	2dd\	4ff#\	4ff#\	4+ 2
4BB-/	4b-\	.	.	[4gg\	[4gg\	6
=4	=4	=4	=4	=4	=4	=4
4AA/	4c#\	4een\	4een\	4gg\]	4gg\]	7 #
4D\	4A/	2dd\	2dd\	2ff\	2ff\	.
2G#\	2bn\	.	.	.	.	7
.	.	8cc\L	8cc\L	8een\L	8een\L	n6
.	.	8bn\J	8bn\J	8dd\J	8dd\J	5
=5	=5	=5	=5	=5	=5	=5
4Gn\	2a\	4cc#\	4cc#\	4een\	4een\	n6 4+ 2
4F\	.	2dd\	2dd\	2aa\	2aa\	6
4BB-/	4f\	.	.	.	.	7
4E-\	4g\	4b-\	4b-\	[4gg\	[4gg\	7
=6	=6	=6	=6	=6	=6	=6
4AA/	4e-\	4cc\	4cc\	4gg\]	4gg\]	7 5
4D\	4f\	4a/	4a/	2ff\	2ff\	7
4GG/	4d\	4b-\	4b-\	.	.	7
4C/	4e-\	4g/	4g/	[4ee-\	[4ee-\	7
=7	=7	=7	=7	=7	=7	=7
4FF/	8c\L	4a/	4a/	4ee-\]	4ee-\]	7
.	8f\J	.	.	.	.	.
4BB-/	2f\	2b-\	2b-\	4dd\	4dd\	.
4F\	.	.	.	2ccT\	2ccT\	5 4
4FF/	4f\	4at/	4at/	.	.	3
=8	=8	=8	=8	=8	=8	=8
4BB-/	4f\	4b-\	4b-\	4b-\	4b-\	.
4r	4r	4r	4r	4r	4bb-\	.
4F\	2r	2r	2r	2r	2aa\	.
4f\	.	.	.	.	.	.
=9	=9	=9	=9	=9	=9	=9
2.e-\	1r	1r	1r	1r	4gg\	6
.	.	.	.	.	4ccc\	.
.	.	.	.	.	4ff\	4 2
4d\	.	.	.	.	[4bb-\	6
=10	=10	=10	=10	=10	=10	=10
2c\	1r	1r	1r	1r	8bb-\L]	7
.	.	.	.	.	16aa\L	6
.	.	.	.	.	16gg\JJ	.
.	.	.	.	.	[4aa\	.
2B-\	.	.	.	.	8aa\L]	7
.	.	.	.	.	8dd\J	.
.	.	.	.	.	[4gg\	6
=11	=11	=11	=11	=11	=11	=11
4C#/	1r	1r	1r	1r	8gg\L]	6 5
.	.	.	.	.	16ff\L	.
.	.	.	.	.	16een\JJ	.
4D\	.	.	.	.	8ff\L	.
.	.	.	.	.	16ee\L	.
.	.	.	.	.	16dd\JJ	.
4GG/	.	.	.	.	8bb-\L	n6 5
.	.	.	.	.	8dd\J	.
4AA/	.	.	.	.	8.cc#t\L	#
.	.	.	.	.	16dd\Jk	.
=12	=12	=12	=12	=12	=12	=12
4D\	1r	1r	1r	1r	4dd\	.
4d\	.	.	.	.	4r	.
2c#\	.	.	.	.	4a/	6 5
.	.	.	.	.	4gg\	.
=13	=13	=13	=13	=13	=13	=13
4cn\	1r	1r	1r	1r	8ff#\L	6 4+ 2
.	.	.	.	.	16een\L	.
.	.	.	.	.	16dd\JJ	.
4D\	.	.	.	.	8ccc\L	7 #
.	.	.	.	.	16bb-\L	.
.	.	.	.	.	16aa\JJ	.
4.G\	.	.	.	.	8bb-\L	.
.	.	.	.	.	8gg\J	.
.	.	.	.	.	[4eee-\	.
8G\	.	.	.	.	.	6
=14	=14	=14	=14	=14	=14	=14
4F#\	1r	1r	1r	1r	8eee-\L]	7
.	.	.	.	.	8aa\J	.
4Fn\	.	.	.	.	[4ddd\	6
4En\	.	.	.	.	8ddd\L]	7
.	.	.	.	.	8gg\J	.
4E-\	.	.	.	.	[4ccc\	6
=15	=15	=15	=15	=15	=15	=15
4.D\	1r	1r	1r	1r	8ccc\L]	7 #
.	.	.	.	.	8dd\J	.
.	.	.	.	.	[4bb-\	.
8G\	.	.	.	.	.	.
4C#/	.	.	.	.	8bb-\L]	7 5
.	.	.	.	.	16aa\L	6
.	.	.	.	.	16gg\JJ	.
4D\	.	.	.	.	8.ff#t\L	#
.	.	.	.	.	16gg\Jk	.
=16	=16	=16	=16	=16	=16	=16
4GG/	1r	1r	1r	1r	4gg\	.
4G\	.	.	.	.	4r	.
2F#\	.	.	.	.	4dd\	6 5
.	.	.	.	.	4ccc\	.
=17	=17	=17	=17	=17	=17	=17
4Fn\	1r	1r	1r	1r	4bbn\	4n 2
2E-\	.	.	.	.	8ccc\L	6
.	.	.	.	.	8cc\J	.
.	.	.	.	.	4ff\	4 2
[4D\	.	.	.	.	8bb-\L	6
.	.	.	.	.	8b-\J	.
=18	=18	=18	=18	=18	=18	=18
4D\]	1r	1r	1r	1r	4ee-\	4 2
4C/	.	.	.	.	8aa\L	6
.	.	.	.	.	8cc\J	.
2BB-/	.	.	.	.	8dd\L	3
.	.	.	.	.	16cc\L	.
.	.	.	.	.	16b-\JJ	.
.	.	.	.	.	8.een\L	n4
.	.	.	.	.	16ff\Jk	.
=19	=19	=19	=19	=19	=19	=19
2AA/	1r	1r	1r	1r	4ff\	6
.	.	.	.	.	4ee-\	b5
4BB-/	.	.	.	.	8dd\L	.
.	.	.	.	.	8b-\J	.
8r	.	.	.	.	[4bb-\	.
8D\	.	.	.	.	.	6
=20	=20	=20	=20	=20	=20	=20
4E-\	2r	2r	2r	2r	8bb-\L]	6 5
.	.	.	.	.	8dd\J	.
4F\	.	.	.	.	4ccT\	.
[2BB-/	2f\	4b-\	4dd\	4dd\	4dd\	.
.	.	4dd\	4ff\	4ff\	4ff\	.
=21	=21	=21	=21	=21	=21	=21
4BB-/]	4g\	2cc\	4ee-\	4ee-\	4ee-\	4 2
4AA/	4a\	.	2ff\	2ff\	2ff\	6
4GG/	4d\	2b-\	.	.	.	7
4C/	4e-\	.	[4ee-\	[4ee-\	[4ee-\	7
=22	=22	=22	=22	=22	=22	=22
4FF/	4c\	2a/	4ee-\]	4ee-\]	4ee-\]	7
4BB-/	4d\	.	4dd\	4dd\	4dd\	.
2En\	2g\	4b-\	4dd-\	4dd-\	4dd-\	b7
.	.	8a/L	8cc\L	8cc\L	8cc\L	6
.	.	8g/J	8b-\J	8b-\J	8b-\J	5
=23	=23	=23	=23	=23	=23	=23
4E-\	4c\	8f/L	8a/L	8a/L	8a/L	6 4 2
.	.	8cc/J	8f/J	8f/J	8f/J	.
4D\	4f\	4dd\	2b-\	2b-\	2b-\	6
4E-\	4g\	2ccT\	.	.	.	6 5
4F\	4f\	.	4at/	4at/	4at/	.
=24	=24	=24	=24	=24	=24	=24
1BB-;/	1f;\	1dd;\	1b-;\	1b-;\	1b-;\	.
==|!	==|!	==|!	==|!	==|!	==|!	==|!
*-	*-	*-	*-	*-	*-	*-
!!!CDT: 1678/3/4/-1741/7/28
!!!OCY: Italia
!!!ODE: Count Wenzeslaus von Morzin of Bohemia; Count Wenceslas of Morzin
!!!ODT: 1725///
!!!OPC: Venezia; Venice
!!!AGN: concerto
!!!AST: baroque
!!!AMT: simple quadruple
!!!PPR: Michel-Charles Le Ce`ne
!!!PC#: Le Cene No. 521
!!!PDT: 1725///
!!!PPP: Amsterdam
!!!SCT: RV 332
!!!SMA1: The cooperation of the following libraries is gratefully acknowledged:
!!!SMA2: Saechsische Landesbibliothek, Dresden; Biblioteca Nazionale
!!!SMA3: Universitaria, Turin; Henry Watson Music Library, Manchester.
!!!YOR: New York: Dover Publications, Inc. 1995
!!!AIN: cello cemba viola violn
!!!EEV: 1.0
!!!RDT: 1994/4/30/
!!!YER: 1996/10/31/
!!!YEP: Center for Computer Assisted Research in the Humanities
!!!YEN: United States of America
!!!EFL: 2/3
!!!ENC: Edmund Correia, Jr.
!!!EED: Eleanor Selfridge-Field
